resources/icons/16px/temperature.svg

<svg width="16" height="16" viewBox="0 0 16 16" fill="none" xmlns="http://www.w3.org/2000/svg">
<path fill-rule="evenodd" clip-rule="evenodd" d="M8.5 0C7.67157 0 7 0.671573 7 1.5V9.33682C5.81753 9.89855 5 11.1038 5 12.5C5 14.433 6.567 16 8.5 16C10.433 16 12 14.433 12 12.5C12 11.1038 11.1825 9.89855 10 9.33682V1.5C10 0.671573 9.32843 0 8.5 0ZM2 5.5C2 5.22386 2.22386 5 2.5 5L5.5 5C5.77614 5 6 5.22386 6 5.5C6 5.77614 5.77614 6 5.5 6L2.5 6C2.22386 6 2 5.77614 2 5.5ZM2.5 1C2.22386 1 2 1.22386 2 1.5C2 1.77614 2.22386 2 2.5 2L5.5 2C5.77614 2 6 1.77614 6 1.5C6 1.22386 5.77614 1 5.5 1L2.5 1ZM4 3.5C4 3.22386 4.22386 3 4.5 3H5.5C5.77614 3 6 3.22386 6 3.5C6 3.77614 5.77614 4 5.5 4H4.5C4.22386 4 4 3.77614 4 3.5ZM4.5 7C4.22386 7 4 7.22386 4 7.5C4 7.77614 4.22386 8 4.5 8H5.5C5.77614 8 6 7.77614 6 7.5C6 7.22386 5.77614 7 5.5 7L4.5 7Z" fill="#5C7080"/>
</svg>

<svg xmlns="http://www.w3.org/2000/svg" viewBox="0 0 16 16">
  <path d="M8.5 0A1.5 1.5 0 0 0 7 1.5v7.837a3.5 3.5 0 1 0 3 0V1.5A1.5 1.5 0 0 0 8.5 0M2 5.5a.5.5 0 0 1 .5-.5h3a.5.5 0 0 1 0 1h-3a.5.5 0 0 1-.5-.5M2.5 1a.5.5 0 0 0 0 1h3a.5.5 0 0 0 0-1zM4 3.5a.5.5 0 0 1 .5-.5h1a.5.5 0 0 1 0 1h-1a.5.5 0 0 1-.5-.5M4.5 7a.5.5 0 0 0 0 1h1a.5.5 0 0 0 0-1z"/>
</svg>
